!!!id: BC057
!!!page: 72-73t
!!!COM: Nadeau, Hector (p.s.s.)
!!!LYR: Nadeau, Hector (p.s.s.)
!!!PTL@@FR: Les 100 plus belles chansons
!!!OTL: R√™ves canadiens
!!!PUB: La Bonne Chanson, inc.
!!!YEM: On ne peut reproduire, enregistrer ou diffuser en tout ou en partie le pr√©sent ouvrage, sous quelque proc√©d√© que ce soit, √©lectronique, m√©canique, photographique, sonore, magn√©tique ou autre, sans avoir obtenu au pr√©alable l'autorisation √©crite de l'√©ditrice.
!!!PDT: 2011
!!!SMA: 2012 Biblioth√®que nationale du Qu√©bec; Bibloth√®que nationale du Canada
!!!AGN-Laforte: Chanson strophique (avec refrain int√©gr√©), 3:5(7+5,7+7,7+9)
!!!AGN-type: Chanson nationaliste/religieuse (identitaire)
!!!AGN-rime: mixtes, crois√©es+suivies (ababccdd)refrain lines and accompanying h√©mistich preserve the rimes through the 5 stanzas.
!!!LYR-elision: none
**kern	**text	**text	**text	**text	**text
*clefG2	*	*	*	*	*
*k[f#]	*	*	*	*	*
*G:	*	*	*	*	*
!!LO:TX:a:t=Allegretto marziale
*M4/4	*	*	*	*	*
*met(c)	*	*	*	*	*
*	*v:1	*v:2	*v:3	*v:4	*v:5
*	*pline:1	*pline:9	*pline:15	*pline:21	*pline:27
{8.d	Sur	Il	Chez	Il	Il
16g	les	re-	lui	veut	vou-
=1	=1	=1	=1	=1	=1
8.b	bords	-√Іut	r√®gn[e]	voir	-drait
16b	du	ja-	un	dans	d'un
8.b	Saint-	-dis	vrai	le	no-
16b	-Lau-	des	bon-	la-	-ble
4b	-rent	cieux	-heur	-beur,	feu,
*	*rp:…СћГ	*rp:√Є	*rp:≈У	*rp:≈У	*rp:√Є
*	*rf:…СћГ	*rf:j√Є	*rf:≈У Б	*rf:≈У Б	*rf:f√Є
*	*rs:a0	*rs:d1-	*rs:f1	*rs:f1	*rs:d2-
*	*pline:2	*pline:10	*pline:16	*pline:22	*pline:28
8.b	Vit	Sa	Qu'il	Gran-	Em-
16cc	un[e]	mis-	gran-	-dir	-bra-
=2	=2	=2	=2	=2	=2
8.b	au-	-sion	-dit	la	-ser
16g	-tre	f√©-	sans	jeu-	les
4b	Fran-	-con-	ces-	-nes-	n√і-
8a	-ce:	-de	-se:	-se;	-tres;
*	*rp:…СћГ	*rp:…ФћГ	*rp:…ЫЋР	*rp:…ЫЋР	*rp:o
*	*rf:…СћГs,…Щ	*rf:…ФћГd,…Щ	*rf:…ЫЋРs,…Щ	*rf:…ЫЋРs,…Щ	*rf:ot Б,…Щ
*	*rs:a1	*rs:e1	*rs:b2	*rs:b2	*rs:c1
8r}	.	.	.	.	.
*	*pline:3	*pline:11	*pline:17	*pline:23	*pline:29
{8.d	Tout	Qu'il	Les	Au	Il
16f#	un	vou-	√©-	de-	vou-
!!LO:PB:g=original
=3	=3	=3	=3	=3	=3
8.a	peu-	-drait	-poux	-voir	-drait
16a	-ple	rem-	por-	comm[e]	don-
8.a	jeun[e],	-plir	-tant	√†	-ner
16a	ar-	joy-	au	l'hon-	√†
4a	-dent,	-eux,	coeur	-neur,	Dieu
*	*rp:…СћГ	*rp:√Є	*rp:≈У Б	*rp:≈У	*rp:√Є
*	*rf:…СћГ	*rf:j√Є	*rf:≈У Б	*rf:≈У Б	*rf:j√Є
*	*rs:a0	*rs:d1-	*rs:f1	*rs:f1	*rs:d1-
*	*pline:4	*pline:12	*pline:18	*pline:24	*pline:30
8.a	Rem-	C'est	Paix,	Bril-	De
16cc	-pli	l'es-	a-	-ler	nom-
=4	=4	=4	=4	=4	=4
8.b	de	-poir	-mour,	la	-breux
16a	vail-	qu'il	ten-	viel-	a-
4b	-lan-	fon-	-dres-	-les-	-p√і-
8g	-ce,	-de,	-se:	-se;	-tres;
*	*rp:…СћГ	*rp:…ФћГ	*rp:…ЫЋРћГ	*rp:…ЫЋР	*rp:o
*	*rf:…СћГs,…Щ	*rf:…ФћГd,…Щ	*rf:…ЫЋРs,…Щ	*rf:…ЫЋРs,…Щ	*rf:ot Б,…Щ
*	*rs:a1	*rs:e1	*rs:b2	*rs:b2	*rs:c1
8r}	.	.	.	.	.
*	*pline:5	*pline:13	*pline:19	*pline:25	*pline:31
{8.b	Qui	En	Il	Il	C'est
16cc	pr√©-	lut-	veut	vou-	la
!!LO:PB:g=original
=5	=5	=5	=5	=5	=5
8.dd	-pa-	-tant	des	-drait	gloi-
16dd	-re	com-	foy-	des	-re
8.dd	sa	-me	-ers	√Ґ-	de
16b	car-	ses	pros-	-mes	nos
8.dd	-ri√®-	p√®-	-p√®-	fi√®-	m√®-
16dd	re,	-res,	-res,	-res,	-res,
*	*rp:…ЫЋР	*rp:…ЫЋР	*rp:…ЫЋР	*rp:…ЫЋР	*rp:…ЫЋР
*	*rf:…ЫЋР Б,…Щ	*rf:…ЫЋР Б,…Щ	*rf:…ЫЋР Б,…Щ	*rf:…ЫЋР Б,…Щ	*rf:…ЫЋР Б,…Щ
*	*rs:b1	*rs:b1	*rs:b1	*rs:b1	*rs:b1
8r	.	.	.	.	.
*Xbrackettup	*	*	*	*	*
!LO:TUP:a	!	!	!	!	!
*	*pline:6	*pline:6r	*pline:6r	*pline:6r	*pline:6r
*	*refrain	*refrain	*refrain	*refrain	*refrain
*	*italic	*italic	*italic	*italic	*italic
(12dd	Li-	Li-	Li-	Li-	Li-
12cc	-re	-re	-re	-re	-re
12b)	lon	lon	lon	lon	lon
=6	=6	=6	=6	=6	=6
!LO:TUP:a	!	!	!	!	!
*	*bis	*bis	*bis	*bis	*bis
(12dd	li-	li-	li-	li-	li-
12cc	-re	-re	-re	-re	-re
12b)	lon	lon	lon	lon	lon
*	*Xbis	*Xbis	*Xbis	*Xbis	*Xbis
4dd^	lai-	lai-	lai-	lai-	lai-
8cc	-re,	-re,	-re,	-re,	-re,
*	*rp:…ЫЋР	*rp:…ЫЋР	*rp:…ЫЋР	*rp:…ЫЋР	*rp:…ЫЋР
*	*rf:…ЫЋР Б,…Щ	*rf:…ЫЋР Б,…Щ	*rf:…ЫЋР Б,…Щ	*rf:…ЫЋР Б,…Щ	*rf:…ЫЋР Б,…Щ
*	*rs:b1	*rs:b1	*rs:b1	*rs:b1	*rs:b1
*	*Xitalic	*Xitalic	*Xitalic	*Xitalic	*Xitalic
*	*Xrefrain	*Xrefrain	*Xrefrain	*Xrefrain	*Xrefrain
8r}	.	.	.	.	.
*	*pline:7	*pline:14	*pline:20	*pline:26	*pline:32
{8.a	Fait	Pour	O√є	As-	Que
16b	les	sa	ray-	-pi-	d'of-
!!LO:PB:g=original
=7	=7	=7	=7	=7	=7
8.cc	r√™-	foi,	-on-	-rant	-frir
16cc	-ves	pour	-nent	tou-	ces
8.b	les	son	les	-jours	doux
16a	plus	dra-	ber-	plus	joy-
4dd	beaux,	-peau,	-ceaux,	haut,	-aux,
*	*rp:o	*rp:o	*rp:o	*rp:o	*rp:o
*	*rf:o	*rf:po	*rf:so	*rf:o	*rf:jo
*	*rs:c0	*rs:c0	*rs:c0	*rs:c0	*rs:c0
!LO:TUP:a	!	!	!	!	!
*	*pline:8	*pline:8r	*pline:8r	*pline:8r	*pline:8r
*	*refrain	*refrain	*refrain	*refrain	*refrain
*	*italic	*italic	*italic	*italic	*italic
(12dd	Li-	Li-	Li-	Li-	Li-
12ee	-re	-re	-re	-re	-re
12dd)	lon	lon	lon	lon	lon
=8	=8	=8	=8	=8	=8
8.dd	lai-	lai-	lai-	lai-	lai-
16dd	-re,	-re,	-re,	-re,	-re,
!LO:TUP:a	!	!	!	!	!
*	*bis	*bis	*bis	*bis	*bis
(12dd	li-	li-	li-	li-	li-
12dd	-re	-re	-re	-re	-re
12dd)	lon	lon	lon	lon	lon
*	*Xbis	*Xbis	*Xbis	*Xbis	*Xbis
8b	lo,	lo,	lo,	lo,	lo,
*	*rp:o	*rp:o	*rp:o	*rp:o	*rp:o
*	*rf:lo	*rf:lo	*rf:lo	*rf:lo	*rf:lo
*	*rs:c0	*rs:c0	*rs:c0	*rs:c0	*rs:c0
8r}	.	.	.	.	.
*	*Xitalic	*Xitalic	*Xitalic	*Xitalic	*Xitalic
*	*Xrefrain	*Xrefrain	*Xrefrain	*Xrefrain	*Xrefrain
*	*pline:5r	*pline:13r	*pline:19r	*pline:25r	*pline:31r
{8.b	Qui	En	Il	Il	C'est
16cc	pr√©-	lut-	veut	vou-	la
!!LO:PB:g=original
=9	=9	=9	=9	=9	=9
8.dd	-pa-	-tant	des	-drait	gloi-
16dd	-re	com-	foy-	des	-re
8.dd	sa	-me	-ers	√Ґ-	de
16b	car-	ses	pros-	-mes	nos
8.dd	-ri√®-	p√®-	-p√®-	fi√®-	m√®-
16dd	-re	-res,	-res,	-res,	-res,
*	*rp:…ЫЋР	*rp:…ЫЋР	*rp:…ЫЋР	*rp:…ЫЋР	*rp:…ЫЋР
*	*rf:…ЫЋР Б,…Щ	*rf:…ЫЋР Б,…Щ	*rf:…ЫЋР Б,…Щ	*rf:…ЫЋР Б,…Щ	*rf:…ЫЋР Б,…Щ
*	*rs:b1	*rs:b1	*rs:b1	*rs:b1	*rs:b1
*Xbrackettup	*	*	*	*	*
!LO:TUP:a	!	!	!	!	!
*	*pline:6r	*pline:6r	*pline:6r	*pline:6r	*pline:6r
*	*refrain	*refrain	*refrain	*refrain	*refrain
*	*italic	*italic	*italic	*italic	*italic
(12dd	Li-	Li-	Li-	Li-	Li-
12cc	-re	-re	-re	-re	-re
12b)	lon	lon	lon	lon	lon
=10	=10	=10	=10	=10	=10
!LO:TUP:a	!	!	!	!	!
*	*bis	*bis	*bis	*bis	*bis
(12dd	li-	li-	li-	li-	li-
12cc	-re	-re	-re	-re	-re
12b)	lon	lon	lon	lon	lon
*	*Xbis	*Xbis	*Xbis	*Xbis	*Xbis
4dd^	lai-	lai-	lai-	lai-	lai-
8cc	-re,	-re,	-re,	-re,	-re,
*	*rp:…ЫЋР	*rp:…ЫЋР	*rp:…ЫЋР	*rp:…ЫЋР	*rp:…ЫЋР
*	*rf:…ЫЋР Б,…Щ	*rf:…ЫЋР Б,…Щ	*rf:…ЫЋР Б,…Щ	*rf:…ЫЋР Б,…Щ	*rf:…ЫЋР Б,…Щ
*	*rs:b1	*rs:b1	*rs:b1	*rs:b1	*rs:b1
8r}	.	.	.	.	.
*	*Xitalic	*Xitalic	*Xitalic	*Xitalic	*Xitalic
*	*Xrefrain	*Xrefrain	*Xrefrain	*Xrefrain	*Xrefrain
*	*pline:7r	*pline:14r	*pline:20r	*pline:26r	*pline:32r
{8.a	Fait	Pour	O√є	As-	Que
16b	les	sa	ray-	-pi-	d'of-
!!LO:PB:g=original
=11	=11	=11	=11	=11	=11
8.cc	r√™-	foi,	-on-	-rant	-fir
16cc	-ves	pour	-nent	tou-	ces
8.b	les	son	les	-jours	doux
16a	plus	dra-	ber-	plus	joy-
4dd	beaux,	-peau,	-ceaux,	haut,	-aux,
*	*rp:o	*rp:o	*rp:o	*rp:o	*rp:o
*	*rf:bo	*rf:po	*rf:so	*rf:o	*rf:jo
*	*rs:c0	*rs:c0	*rs:c0	*rs:c0	*rs:c0
!LO:TUP:a	!	!	!	!	!
*	*pline:8r	*pline:8r	*pline:8r	*pline:8r	*pline:8r
*	*refrain	*refrain	*refrain	*refrain	*refrain
*	*italic	*italic	*italic	*italic	*italic
(12dd	Li-	Li-	Li-	Li-	Li-
12ee	-re	-re	-re	-re	-re
12dd)	lon	lon	lon	lon	lon
=12	=12	=12	=12	=12	=12
8.dd	lai-	lai-	lai-	lai-	lai-
16dd	-re,	-re,	-re,	-re,	-re,
!LO:TUP:a	!	!	!	!	!
*	*bis	*bis	*bis	*bis	*bis
(12dd	li-	li-	li-	li-	li-
12cc	-re	-re	-re	-re	-re
12a)	lon	lon	lon	lon	lon
*	*Xbis	*Xbis	*Xbis	*Xbis	*Xbis
4g}	lo.	lo.	lo.	lo.	lo.
*	*rp:o	*rp:o	*rp:o	*rp:o	*rp:o
*	*rf:lo	*rf:lo	*rf:lo	*rf:lo	*rf:lo
*	*rs:c0	*rs:c0	*rs:c0	*rs:c0	*rs:c0
*	*Xitalic	*Xitalic	*Xitalic	*Xitalic	*Xitalic
*	*Xrefrain	*Xrefrain	*Xrefrain	*Xrefrain	*Xrefrain
==	==	==	==	==	==
*-	*-	*-	*-	*-	*-
!!!EED: √Иve Poudrier
!!!EEV: 12/09/2025
